svgs/sharp-light/gift.svg

<svg xmlns="http://www.w3.org/2000/svg" viewBox="0 0 512 512"><!--! Font Awesome Pro 6.6.0 by @fontawesome - https://fontawesome.com License - https://fontawesome.com/license (Commercial License) Copyright 2024 Fonticons, Inc. --><path d="M365.1 32c-17.6 0-33.9 9-43.2 23.9l-45 72.1 11.1 0 80 0c26.5 0 48-21.5 48-48s-21.5-48-48-48l-2.9 0zm-130 96l-45-72.1C180.8 41 164.5 32 146.9 32L144 32c-26.5 0-48 21.5-48 48s21.5 48 48 48l80 0 11.1 0zM256 101l38.8-62c15.2-24.2 41.7-39 70.3-39L368 0c44.2 0 80 35.8 80 80c0 18-6 34.6-16 48l48 0 32 0 0 32 0 96 0 32-32 0 0 192 0 32-32 0L64 512l-32 0 0-32 0-192L0 288l0-32 0-96 0-32 32 0 48 0C70 114.6 64 98 64 80C64 35.8 99.8 0 144 0l2.9 0c28.6 0 55.2 14.7 70.3 39L256 101zM144 160L32 160l0 96 32 0 176 0 0-96-16 0-80 0zm128 0l0 96 176 0 32 0 0-96-112 0-80 0-16 0zM240 288L64 288l0 192 176 0 0-192zm32 192l176 0 0-192-176 0 0 192z"/></svg>

<svg xmlns="http://www.w3.org/2000/svg" viewBox="0 0 512 512"><!--! Font Awesome Pro 6.4.0 by @fontawesome - https://fontawesome.com License - https://fontawesome.com/license (Commercial License) Copyright 2023 Fonticons, Inc. --><path d="M365.1 32c-17.6 0-33.9 9-43.2 23.9l-45 72.1H288h80c26.5 0 48-21.5 48-48s-21.5-48-48-48h-2.9zm-130 96l-45-72.1C180.8 41 164.5 32 146.9 32H144c-26.5 0-48 21.5-48 48s21.5 48 48 48h80 11.1zM256 101l38.8-62c15.2-24.2 41.7-39 70.3-39H368c44.2 0 80 35.8 80 80c0 18-6 34.6-16 48h48 32v32 96 32H480V480v32H448 64 32V480 288H0V256 160 128H32 80C70 114.6 64 98 64 80C64 35.8 99.8 0 144 0h2.9c28.6 0 55.2 14.7 70.3 39L256 101zM144 160H32v96H64 240V160H224 144zm128 0v96H448h32V160H368 288 272zM240 288H64V480H240V288zm32 192H448V288H272V480z"/></svg>
